X:5
T:Behind the Haystack
Z: id:dc-jig-3
M:6/8
L:1/8
K:D Major
A|d2e fdB|d2e fdB|AFE EFA|AFE E2A|!
d2e fdB|d2e fdB|AFD DED|AFD D2:|!
A|BcB BAF|ABc dcB|AFE EFA|AFE E2A|!
BcB BAF|ABc dcB|AFD DED|AFD D2:|!
f|g3 f3|ede fdB|AFE EFA|AFE E2f|!
g3 f3|ede fdB|AFD DED|AFD D2:|!

